res/skins/LateNight/buttons/btn_reloop_overdown.svg

<?xml version="1.0" encoding="UTF-8" standalone="no"?>
<!-- Created with Inkscape (http://www.inkscape.org/) -->

<svg
   xmlns:dc="http://purl.org/dc/elements/1.1/"
   xmlns:cc="http://creativecommons.org/ns#"
   xmlns:rdf="http://www.w3.org/1999/02/22-rdf-syntax-ns#"
   xmlns:svg="http://www.w3.org/2000/svg"
   xmlns="http://www.w3.org/2000/svg"
   xmlns:xlink="http://www.w3.org/1999/xlink"
   version="1.1"
   width="26"
   height="26"
   id="svg4272">
  <metadata
     id="metadata4284">
    <rdf:RDF>
      <cc:Work
         rdf:about="">
        <dc:format>image/svg+xml</dc:format>
        <dc:type
           rdf:resource="http://purl.org/dc/dcmitype/StillImage" />
        <dc:title></dc:title>
      </cc:Work>
    </rdf:RDF>
  </metadata>
  <defs
     id="defs4282">
    <linearGradient
       x1="13"
       y1="1027.3622"
       x2="13"
       y2="1049.3622"
       id="linearGradient3807-3"
       xlink:href="#linearGradient3801-6"
       gradientUnits="userSpaceOnUse"
       gradientTransform="translate(0,-1026.3622)" />
    <linearGradient
       id="linearGradient3801-6">
      <stop
         id="stop3803-7"
         style="stop-color:#242424;stop-opacity:1"
         offset="0" />
      <stop
         id="stop3805-5"
         style="stop-color:#101010;stop-opacity:1"
         offset="1" />
    </linearGradient>
    <linearGradient
       x1="15"
       y1="1049.3622"
       x2="15"
       y2="1027.3622"
       id="linearGradient4370"
       xlink:href="#linearGradient3801-6-9-0"
       gradientUnits="userSpaceOnUse"
       gradientTransform="translate(0,-1026.3622)" />
    <linearGradient
       id="linearGradient3801-6-9-0">
      <stop
         id="stop3803-7-1-9"
         style="stop-color:#aa1112;stop-opacity:1"
         offset="0" />
      <stop
         id="stop4329-4"
         style="stop-color:#b60607;stop-opacity:1"
         offset="0.28" />
      <stop
         id="stop3805-5-28-5"
         style="stop-color:#760607;stop-opacity:1"
         offset="1" />
    </linearGradient>
    <linearGradient
       x1="15"
       y1="1049.3622"
       x2="15"
       y2="1027.3622"
       id="linearGradient11030"
       xlink:href="#linearGradient3801-6-9-0"
       gradientUnits="userSpaceOnUse"
       gradientTransform="translate(0,-1026.3622)" />
  </defs>
  <g
     id="layer3"
     style="display:none">
    <path
       d="m 6,6.000125 c -1.644703,-1.028e-4 -3,1.355297 -3,3 l 0,7.00025 c 0,1.644705 1.355294,3.000023 3,3 l 1.00025,-1.25e-4 0,3 6.99975,-3.75 -6.999875,-3.750062 0,3 -1.00025,1.24e-4 C 5.2530103,17.500405 4.4999724,16.733185 4.5,16.000375 l 0,-7.00025 C 4.5,8.288378 5.2670519,7.500188 6,7.500188 L 8,7.500312 8,6.00025 z"
       id="path4276"
       style="color:#000000;fill:#8d8f90;fill-opacity:1;marker:none;overflow:visible" />
    <path
       d="m 10,3 2,0 0,8 -2,0 z"
       id="path3871"
       style="color:#000000;fill:#8d8f90;fill-opacity:1;marker:none;overflow:visible" />
    <path
       d="m 16,6.000125 c 1.644703,-1.028e-4 3,1.355297 3,3 l 0,7.00025 c 0,1.644705 -1.355294,3.000023 -3,3 l -1.00025,-6.3e-5 5e-4,-1.500124 1.00025,6.2e-5 c 0.78903,4.9e-5 1.499527,-0.788131 1.4995,-1.499875 l 0,-7.00025 c 0,-0.725791 -0.753266,-1.499914 -1.500125,-1.499937 l -1.99975,1.25e-4 1.25e-4,-1.500063 z"
       id="path4278"
       style="color:#000000;fill:#8d8f90;fill-opacity:1;marker:none;overflow:visible" />
  </g>
  <rect
     width="23"
     height="23.000017"
     rx="1.5"
     ry="1.5"
     x="0.5"
     y="0.49998301"
     id="rect3029-96-4"
     style="color:#000000;fill:url(#linearGradient11030);fill-opacity:1;fill-rule:nonzero;stroke:none;stroke-width:1;marker:none;visibility:visible;display:inline;overflow:visible;enable-background:accumulate" />
  <g
     transform="translate(2,-2.5e-4)"
     id="layer4-9-1-7"
     style="fill:#320202;fill-opacity:1;display:inline">
    <path
       d="m 6,6.000125 c -1.644703,-1.028e-4 -3,1.355297 -3,3 l 0,7.00025 c 0,1.644705 1.355294,3.000023 3,3 l 1.00025,-1.25e-4 0,3 6.99975,-3.75 -6.999875,-3.750062 0,3 -1.00025,1.24e-4 C 5.2530103,17.500405 4.4999724,16.733185 4.5,16.000375 l 0,-7.00025 C 4.5,8.288378 5.2670519,7.500188 6,7.500188 L 8,7.500312 8,6.00025 z"
       id="path4276-5-2-9"
       style="color:#000000;fill:#320202;fill-opacity:1;marker:none;overflow:visible" />
    <path
       d="m 10,3 2,0 0,8 -2,0 z"
       id="path3871-3-7-2"
       style="color:#000000;fill:#320202;fill-opacity:1;marker:none;overflow:visible" />
    <path
       d="m 16,6.000125 c 1.644703,-1.028e-4 3,1.355297 3,3 l 0,7.00025 c 0,1.644705 -1.355294,3.000023 -3,3 l -1.00025,-6.3e-5 5e-4,-1.500124 1.00025,6.2e-5 c 0.78903,4.9e-5 1.499527,-0.788131 1.4995,-1.499875 l 0,-7.00025 c 0,-0.725791 -0.753266,-1.499914 -1.500125,-1.499937 l -1.99975,1.25e-4 1.25e-4,-1.500063 z"
       id="path4278-5-0-0"
       style="color:#000000;fill:#320202;fill-opacity:1;marker:none;overflow:visible" />
  </g>
  <g
     transform="translate(1,-1)"
     id="layer4-9-2"
     style="fill:#8d8f90;fill-opacity:1;display:inline">
    <path
       d="m 6,6.000125 c -1.644703,-1.028e-4 -3,1.355297 -3,3 l 0,7.00025 c 0,1.644705 1.355294,3.000023 3,3 l 1.00025,-1.25e-4 0,3 6.99975,-3.75 -6.999875,-3.750062 0,3 -1.00025,1.24e-4 C 5.2530103,17.500405 4.4999724,16.733185 4.5,16.000375 l 0,-7.00025 C 4.5,8.288378 5.2670519,7.500188 6,7.500188 L 8,7.500312 8,6.00025 z"
       id="path4276-5-3"
       style="color:#000000;fill:#8d8f90;fill-opacity:1;marker:none;overflow:visible" />
    <path
       d="m 10,3 2,0 0,8 -2,0 z"
       id="path3871-3-75"
       style="color:#000000;fill:#8d8f90;fill-opacity:1;marker:none;overflow:visible" />
    <path
       d="m 16,6.000125 c 1.644703,-1.028e-4 3,1.355297 3,3 l 0,7.00025 c 0,1.644705 -1.355294,3.000023 -3,3 l -1.00025,-6.3e-5 5e-4,-1.500124 1.00025,6.2e-5 c 0.78903,4.9e-5 1.499527,-0.788131 1.4995,-1.499875 l 0,-7.00025 c 0,-0.725791 -0.753266,-1.499914 -1.500125,-1.499937 l -1.99975,1.25e-4 1.25e-4,-1.500063 z"
       id="path4278-5-9"
       style="color:#000000;fill:#8d8f90;fill-opacity:1;marker:none;overflow:visible" />
  </g>
  <path
     d="M 2,0 C 0.90064862,0 0,0.90064862 0,2 l 0,20 c 0,1.099351 0.90064862,2 2,2 l 20,0 c 1.099351,0 2,-0.900649 2,-2 L 24,2 C 24,0.90064862 23.099351,0 22,0 z M 2.3,1 21.7,1 C 22.262649,1 23,1.7373514 23,2.3 l 0,19.4 C 23,22.262649 22.262649,23 21.7,23 L 2.3,23 C 1.7373514,23 1,22.262649 1,21.7 L 1,2.3 C 1,1.7373514 1.7373514,1 2.3,1 z"
     id="rect3029-96-9"
     style="font-size:medium;font-style:normal;font-variant:normal;font-weight:normal;font-stretch:normal;text-indent:0;text-align:start;text-decoration:none;line-height:normal;letter-spacing:normal;word-spacing:normal;text-transform:none;direction:ltr;block-progression:tb;writing-mode:lr-tb;text-anchor:start;baseline-shift:baseline;color:#000000;fill:#979797;fill-opacity:1;fill-rule:nonzero;stroke:none;stroke-width:1;marker:none;visibility:visible;display:inline;overflow:visible;enable-background:accumulate;font-family:Sans;-inkscape-font-specification:Sans" />
</svg>

<svg id="svg4272" width="26" height="26" version="1.1" xmlns="http://www.w3.org/2000/svg"><defs id="defs4282"><linearGradient id="linearGradient11030" x1="15" x2="15" y1="1049.4" y2="1027.4" gradientTransform="translate(0 -1026.4)" gradientUnits="userSpaceOnUse"><stop id="stop3803-7-1-9" stop-color="#aa1112" offset="0"/><stop id="stop4329-4" stop-color="#b60607" offset=".28"/><stop id="stop3805-5-28-5" stop-color="#760607" offset="1"/></linearGradient></defs><rect id="rect3029-96-4" x=".5" y=".49998" width="23" height="23" rx="1.5" ry="1.5" color="#000000" fill="url(#linearGradient11030)"/><g id="layer4-9-1-7" transform="translate(2,-2.5e-4)" fill="#320202"><path id="path4276-5-2-9" d="m6 6.0001c-1.6447-1.028e-4 -3 1.3553-3 3v7.0002c0 1.6447 1.3553 3 3 3l1.0002-1.25e-4v3l6.9998-3.75-6.9999-3.7501v3l-1.0002 1.24e-4c-0.74686 9.3e-5 -1.4999-0.76713-1.4999-1.4999v-7.0002c0-0.71175 0.76705-1.4999 1.5-1.4999l2 1.24e-4v-1.5001z" color="#000000"/><path id="path3871-3-7-2" d="m10 3h2v8h-2z" color="#000000"/><path id="path4278-5-0-0" d="m16 6.0001c1.6447-1.028e-4 3 1.3553 3 3v7.0002c0 1.6447-1.3553 3-3 3l-1.0002-6.3e-5 5e-4 -1.5001 1.0002 6.2e-5c0.78903 4.9e-5 1.4995-0.78813 1.4995-1.4999v-7.0002c0-0.72579-0.75327-1.4999-1.5001-1.4999l-1.9998 1.25e-4 1.25e-4 -1.5001z" color="#000000"/></g><g id="layer4-9-2" transform="translate(1,-1)" fill="#8d8f90"><path id="path4276-5-3" d="m6 6.0001c-1.6447-1.028e-4 -3 1.3553-3 3v7.0002c0 1.6447 1.3553 3 3 3l1.0002-1.25e-4v3l6.9998-3.75-6.9999-3.7501v3l-1.0002 1.24e-4c-0.74686 9.3e-5 -1.4999-0.76713-1.4999-1.4999v-7.0002c0-0.71175 0.76705-1.4999 1.5-1.4999l2 1.24e-4v-1.5001z" color="#000000"/><path id="path3871-3-75" d="m10 3h2v8h-2z" color="#000000"/><path id="path4278-5-9" d="m16 6.0001c1.6447-1.028e-4 3 1.3553 3 3v7.0002c0 1.6447-1.3553 3-3 3l-1.0002-6.3e-5 5e-4 -1.5001 1.0002 6.2e-5c0.78903 4.9e-5 1.4995-0.78813 1.4995-1.4999v-7.0002c0-0.72579-0.75327-1.4999-1.5001-1.4999l-1.9998 1.25e-4 1.25e-4 -1.5001z" color="#000000"/></g><path id="rect3029-96-9" d="m2 0c-1.0994 0-2 0.90065-2 2v20c0 1.0994 0.90065 2 2 2h20c1.0994 0 2-0.90065 2-2v-20c0-1.0994-0.90065-2-2-2zm0.3 1h19.4c0.56265 0 1.3 0.73735 1.3 1.3v19.4c0 0.56265-0.73735 1.3-1.3 1.3h-19.4c-0.56265 0-1.3-0.73735-1.3-1.3v-19.4c0-0.56265 0.73735-1.3 1.3-1.3z" color="#000000" fill="#979797" style="block-progression:tb;text-indent:0;text-transform:none"/></svg>
